!!!CDT:
!!!PTL: Il primo libro de madrigali a cinque voci
!!!PPP: Venice
!!!PPR: Angelo Gardano
!!!PDT: 1584
!!!PUB-format:
!!!RISM: D 3653
!!!rime: 154
!!!AGN: Madrigal
!!!SCT: Trm0154a
!!!SCA: Trm0154a
!!!original-voices: 5
!!!extant-voices: 4
!!!complete: N
!!!final: A
!!!COM: Dueto, Antonio
!!!OTL: S'a sdegno voi prendete
**kern	**text	**kern	**text	**kern	**text	**kern	**text
*part4	*part4	*part3	*part3	*part2	*part2	*part1	*part1
*staff4	*staff4	*staff3	*staff3	*staff2	*staff2	*staff1	*staff1
*I"Basso	*	*I"Tenore	*	*I"Quinto	*	*I"Canto	*
*I'B	*	*I'T	*	*I'V	*	*I'C	*
*oclefC4	*	*oclefC3	*	*oclefC1	*	*oclefG2	*
*clefF4	*	*clefC3	*	*clefG2	*	*clefG2	*
*k[]	*	*k[]	*	*k[]	*	*k[]	*
*omet(C)	*	*omet(C)	*	*omet(C)	*	*omet(C)	*
*M4/4	*	*M4/4	*	*M4/4	*	*M4/4	*
*met(c)	*	*met(c)	*	*met(c)	*	*met(c)	*
!!LO:TX:a:t=Prima parte.
0r	.	1r	.	2cc#X	S'a	2ee	S'a
.	.	.	.	2dd	sde-	2ff	sde-
.	.	4r	.	4cc#i	-gno	4ee	-gno
.	.	2A	voi	2a	voi	2cc#X	voi
.	.	4A	pren-	4a	pren-	4cc#i	pren-
=1	=1	=1	=1	=1	=1	=1	=1
0r	.	2d	-de-	2a	-de-	2dd	-de-
.	.	4G	-te	4b	-te	4dd	-te
.	.	4g	Ch'il	4b	Ch'il	4dd	Ch'il
.	.	4f	cor	4ccnXi	cor	4ff	cor
.	.	4.f	vo-	2cc	vo-	4.ff	vo-
.	.	8f	-stro	.	.	8ff	-stro
.	.	4d	vi	[4dd	-stro	4ff	vi
=2	=2	=2	=2	=2	=2	=2	=2
1r	.	1e	chie-	4dd]	.	1ee	chie-
.	.	.	.	4cc	vi	.	.
.	.	.	.	2b	chie-	.	.
2r	.	2A	-da,	1cc#X	-da,	1ee	-da,
2A	L'i-	2r	.	.	.	.	.
=3	=3	=3	=3	=3	=3	=3	=3
4A	-ma-	2e	L'i-	0r	.	2r	.
4A	-gin	.	.	.	.	.	.
1c	vo-	4e	-ma-	.	.	2ee	L'i-
.	.	4e	-gin	.	.	.	.
.	.	1g	vo-	.	.	4ee	-ma-
.	.	.	.	.	.	4ee	-gin
2G	-str'al-	.	.	.	.	4gg	vo-
.	.	.	.	.	.	4dd	-str'al-
=4	=4	=4	=4	=4	=4	=4	=4
2A	-men	4e	-str'al-	0r	.	2cc	-men
.	.	2e	-men	.	.	.	.
2E	mi	.	.	.	.	2b	mi
.	.	4e	mi	.	.	.	.
4F	si	4c	si	.	.	4a	si
4D	con-	4f	con-	.	.	2dd	con-
2A	-ce-	2e	-ce-	.	.	.	.
.	.	.	.	.	.	4cc#i	-ce-
=5	=5	=5	=5	=5	=5	=5	=5
2D	-da,	1d	-da,	1.a	L'i-	4dd	-da,
.	.	.	.	.	.	4dd	L'i-
4r	.	.	.	.	.	4dd	-ma-
4d	L'i-	.	.	.	.	4dd	-gin
4d	-ma-	2r	.	.	.	2ff	vo-
4d	-gin	.	.	.	.	.	.
2f	vo-	4r	.	4a	-ma-	2ccnXi	-stra,
.	.	4A	L'i-	4a	-gin	.	.
=6	=6	=6	=6	=6	=6	=6	=6
2c	-stra,	4A	-ma-	2cc	vo-	4r	.
.	.	4A	-gin	.	.	4ee	<L'i-
2r	.	1c	vo-	2.g	-str'al-	4ee	-ma-
.	.	.	.	.	.	4ee	-gin
1r	.	.	.	.	.	2.gg	vo-
.	.	.	.	2cc	-men	.	.
.	.	2G	-stra,	.	.	.	.
.	.	.	.	4b	mi	4dd	-str'>al-
=7	=7	=7	=7	=7	=7	=7	=7
1r	.	4r	.	4a	si	2.ff	-men,
.	.	4d	<L'i-	4a	con-	.	.
.	.	4d	-ma-	4.f	-ce-	.	.
.	.	4d	-gin	.	.	8eeL	.
.	.	.	.	8g	.	8ddJ	.
4r	.	2f	vo-	2a	.	8ccL	.
.	.	.	.	.	.	8bJ	.
4A	<L'i-	.	.	.	.	8ccL	.
.	.	.	.	.	.	8ddJ	.
4A	-ma-	2c	-stra>	4a	-da,	[2ee	.
4A	-gin	.	.	4e	<L'i-	.	.
=8	=8	=8	=8	=8	=8	=8	=8
2c	vo-	4r	.	4e	-ma-	2ee]	.
.	.	4g	al-	4e	-gin	.	.
2G	-str'>al-	2g	-men,	4g	vo-	2dd	al-
.	.	.	.	4d	-str'al-	.	.
2A	-men	4r	.	4f	-men	2cc	-men
.	.	4c	al-	4e	mi	.	.
2E	mi	4e	-men	4.e	si	4b	mi
.	.	4B	mi	.	.	[4ee	si
.	.	.	.	8d	con-	.	.
=9	=9	=9	=9	=9	=9	=9	=9
4F	si	4A	si	4c	-ce-	4ee]	.
4D	con-	4f	con-	4d	.	2dd	con-
2A	-ce-	2e	-ce-	2e	.	.	.
.	.	.	.	.	.	4cc#i	-ce-
2D	-da.	2d	-da.	2f#X	-da.>	1dd	-da.
4r	.	4r	.	4r	.	.	.
[4d	Ma	[4f	Ma	[4dd	Ma	.	.
=10	=10	=10	=10	=10	=10	=10	=10
4d]	.	4f]	.	4dd]	.	1r	.
4A	che	4e	che	4cc	che	.	.
4c	fia	4e	fia	4cc	fia	.	.
2G	che	2d	che	2b	che	.	.
.	.	.	.	.	.	2r	.
4A	l'am-	4c	l'am-	2a	l'am-	.	.
2E	-mi-	2B	-mi-	.	.	4.ee	L'a-
.	.	.	.	4g#X	-mi-	.	.
.	.	.	.	.	.	8dd	.
=11	=11	=11	=11	=11	=11	=11	=11
2A	-ri,	2A	-ri,	2a	-ri,	2cc	.
2r	.	4.e	L'a-	4r	.	2b	-mi,
.	.	.	.	4.ee	L'a-	.	.
.	.	8d	.	.	.	.	.
4r	.	4.c	.	.	.	2r	.
.	.	.	.	8dd	.	.	.
2A	L'a-	.	.	2cc	.	.	.
.	.	8B	.	.	.	.	.
.	.	4A	.	.	.	[2ee	<L'a-
4G	.	4B	.	4b	-mi,	.	.
=12	=12	=12	=12	=12	=12	=12	=12
1F	.	2c	.	1.a	L'a-	2ee]	.
.	.	2d	.	.	.	2dd	.
1E	-mi	1e	-mi	.	.	2cc	.
.	.	.	.	2g#X	-mi	2b	-mi>
=13	=13	=13	=13	=13	=13	=13	=13
0r	.	4r	.	2r	.	1r	.
.	.	4d	e	.	.	.	.
.	.	4d	sen	4a	e	.	.
.	.	2f	mo-	4a	sen	.	.
.	.	.	.	2.cc	mo-	2r	.
.	.	8eL	.	.	.	.	.
.	.	8dJ	.	.	.	.	.
.	.	4c	.	.	.	4r	.
.	.	4d	-stri	8bL	.	4dd	e
.	.	.	.	8aJ	.	.	.
=14	=14	=14	=14	=14	=14	=14	=14
4r	.	4B-X	va-	4g	.	4dd	sen
4D	e	4A	-go,	4a	-stri	2ff	mo-
4D	sen	2r	.	4.f	va-	.	.
2F	mo-	.	.	.	.	8eeL	.
.	.	.	.	8g	.	8ddJ	.
.	.	1r	.	1a	.	8ccL	.
.	.	.	.	.	.	8bJ	.
8EL	.	.	.	.	.	8ccL	.
8DJ	.	.	.	.	.	8ddJ	.
4C#X	.	.	.	.	.	4ee	.
4D	-stri	.	.	.	.	4dd	-stri
=15	=15	=15	=15	=15	=15	=15	=15
2A	va-	4e	<e	2a	-go,	2cc	va-
.	.	4e	sen	.	.	.	.
4G	-go,	2.g	mo-	4r	<e	2b	-go,
4G	<e	.	.	4b	sen	.	.
4G	sen	.	.	4b	mo-	1r	.
2B-X	mo-	8fL	.	2dd	.	.	.
.	.	8eJ	.	.	.	.	.
.	.	8dL	.	.	.	.	.
.	.	8eJ	.	.	.	.	.
8AL	.	8fL	.	8ccL	.	.	.
8GJ	.	8gJ	.	8bJ	.	.	.
=16	=16	=16	=16	=16	=16	=16	=16
4F	.	4a	.	4a	.	2r	.
4G	-stri	4g	-stri	4b	.	.	.
4A	va-	2e	va-	2cc	-stri	4ee	<e
4A	-go,>	.	.	.	.	4ee	sen
4r	.	2e	-go>	4.b	va-	2.gg	mo-
4e	<e	.	.	.	.	.	.
.	.	.	.	8a	.	.	.
4e	sen	2r	.	2g	-go,>	.	.
[4g	mo-	.	.	.	.	8ffL	.
.	.	.	.	.	.	8eeJ	.
=17	=17	=17	=17	=17	=17	=17	=17
4g]	.	0r	.	4r	.	4.dd	.
8fL	.	.	.	4.a	va-	.	.
8eJ	.	.	.	.	.	8ee	.
4d	.	.	.	.	.	4ff	.
.	.	.	.	8b	.	.	.
4e	-stri	.	.	4.cc	.	2ee	-stri
2f	va-	.	.	.	.	.	.
.	.	.	.	8b	.	.	.
.	.	.	.	2a	.	4dd	va-
2e	-go>	.	.	.	.	4ee	-go>
.	.	.	.	4g#X	-go	[4ee	Se
=18	=18	=18	=18	=18	=18	=18	=18
1r	.	4.a	Se	2r	.	8ee]	.
.	.	.	.	.	.	8dd	non
.	.	.	.	.	.	4cc	se-
.	.	8g	non	.	.	.	.
.	.	4f	se-	4.a	Se	8cc	-gu'il
.	.	.	.	.	.	8b	mio
.	.	8f	-gu'il	.	.	4a	cor,
.	.	8e	mio	8gnXi	non	.	.
4r	.	2d	cor,	4f	se-	4.aa	<Se
4.d	Se	.	.	8f	-gu'il	.	.
.	.	.	.	8e	mio	8gg	non
.	.	2r	.	4d	cor,	4ff	se-
8c	non	.	.	.	.	.	.
4B-X	se-	.	.	[4dd	<Se	8ff	-gu'il
.	.	.	.	.	.	8ee	mio
=19	=19	=19	=19	=19	=19	=19	=19
8B-i	-gu'il	4r	.	8dd]	.	2dd	cor,>
8A	mio	.	.	8cc	non	.	.
4G	cor,	4.g	<Se	4b-X	se-	.	.
4r	.	.	.	8b-i	-gu'il	4.gg	<Se
.	.	8f	non	8a	mio	.	.
4.c	<Se	4e	se-	2g	cor,>	.	.
.	.	.	.	.	.	8ff	non
.	.	8e	-gu'il	.	.	4ee	se-
8BnXi	non	8d	mio	.	.	.	.
4A	se-	4c	cor>	4.cc	<Se	8ee	-gu'il
.	.	.	.	.	.	8dd	mio
8A	-gu'il	2r	.	.	.	[2cc	cor>
8G	mio	.	.	8bnXi	non	.	.
4F	cor>	.	.	4a	se-	.	.
=20	=20	=20	=20	=20	=20	=20	=20
2F	la	2c	la	8a	-gu'il	2cc]	.
.	.	.	.	8g	mio	.	.
.	.	.	.	4f	cor>	.	.
2.C	vo-	8cL	vo-	4g	la	4ee	la
.	.	8BJ	.	.	.	.	.
.	.	8cL	.	2cc	vo-	2ee	vo-
.	.	8dJ	.	.	.	.	.
.	.	4e	.	.	.	.	.
4D	-stra i-	4A	-stra i-	4a	-stra i-	2dd	-stra i-
2A	-ma-	2A	-ma-	2a	-ma-	.	.
.	.	.	.	.	.	4cc#i	-ma-
=21	=21	=21	=21	=21	=21	=21	=21
0Dl	-go?	0Al	-go?	0f#Xl	-go?	0ddl	-go?
=22||	=22||	=22||	=22||	=22||	=22||	=22||	=22||
!!LO:TX:a:t=Seconda parte.
0r	.	2.d	Dun-	1r	.	2.ff	Dun-
.	.	4d	-qu'il	.	.	4ff	-qu'il
.	.	2.c	cor	2r	.	2.ee	cor,
.	.	.	.	[2a	Dun-	.	.
.	.	8B	mi	.	.	4dd	il
.	.	8A	ren-	.	.	.	.
=23	=23	=23	=23	=23	=23	=23	=23
1r	.	1e	-de-	4a]	.	4cc	cor
.	.	.	.	4a	-qu'il	8b	mi
.	.	.	.	.	.	8a	ren-
.	.	.	.	2g#X	cor,	2b	-de-
2.A	Dun-	4e	-te,	4r	.	2a	-te,
.	.	2c	Dun-	4a	il	.	.
.	.	.	.	4a	cor	2r	.
4A	-qu'il	4c	-qu'il	8e	mi	.	.
.	.	.	.	8f	ren-	.	.
=24	=24	=24	=24	=24	=24	=24	=24
2G	cor,	2d	cor,	2gnXi	-de-	0r	.
4F	il	4r	.	2c	-te,	.	.
2F	cor	2a	Dun-	.	.	.	.
.	.	.	.	1r	.	.	.
8E	mi	4a	-qu'il	.	.	.	.
8D	ren-	.	.	.	.	.	.
2E	-de-	[2g	cor,	.	.	.	.
=25	=25	=25	=25	=25	=25	=25	=25
4D	-te,	4g]	.	1a	Dun-	1r	.
2d	Dun-	4f	il	.	.	.	.
.	.	2.f	cor	.	.	.	.
4d	-qu'il	.	.	.	.	.	.
2.c	cor	.	.	2a	-qu'il	2r	.
.	.	8e	mi	.	.	.	.
.	.	8d	ren-	.	.	.	.
.	.	4e	-de-	[2g	cor,	4r	.
8B	mi	4d	-te,	.	.	[4dd	Dun-
8A	ren-	.	.	.	.	.	.
=26	=26	=26	=26	=26	=26	=26	=26
2B	-de-	0r	.	4g]	.	4dd]	.
.	.	.	.	4d	il	4dd	-qu'il
2A	-te,	.	.	4f	cor	2.cc	cor
.	.	.	.	8e	mi	.	.
.	.	.	.	8d	ren-	.	.
1r	.	.	.	1e	-de-	.	.
.	.	.	.	.	.	8b	mi
.	.	.	.	.	.	8a	ren-
.	.	.	.	.	.	2b	-de-
=27	=27	=27	=27	=27	=27	=27	=27
2.d	Dun-	1r	.	1a	-te,	4a	-te,
.	.	.	.	.	.	2ff	Dun-
4d	-qu'il	.	.	.	.	4ff	-qu'il
8cL	cor,	2.g	Dun-	1r	.	2ee	cor,
8dJ	.	.	.	.	.	.	.
8eL	.	.	.	.	.	.	.
8fJ	.	.	.	.	.	.	.
4g	.	.	.	.	.	[2dd	il
4G	il	4g	-qu'il	.	.	.	.
=28	=28	=28	=28	=28	=28	=28	=28
1A	cor	4f	cor	4r	.	4dd]	.
.	.	8e	mi	2a	<Dun-	2cc	cor
.	.	8d	ren-	.	.	.	.
.	.	1e	-de-	.	.	.	.
.	.	.	.	4a	-qu'il	8b	mi
.	.	.	.	.	.	8a	ren-
8EL	mi	.	.	2.g	cor,	2.b	-de-
8DJ	.	.	.	.	.	.	.
8EL	.	.	.	.	.	.	.
8FJ	.	.	.	.	.	.	.
4G	.	2d	-te,	.	.	.	.
4D	ren-	.	.	4f	il	4a	-te,
=29	=29	=29	=29	=29	=29	=29	=29
2F	-de-	4r	.	4f	cor	1r	.
.	.	4A	il	8e	mi	.	.
.	.	.	.	8d	ren-	.	.
2E	-te,	4c	cor	2e	-de-	.	.
.	.	8B	mi	.	.	.	.
.	.	8c	ren-	.	.	.	.
1r	.	1d	-de-	4d	-te,>	2r	.
.	.	.	.	2dd	Dun-	.	.
.	.	.	.	.	.	[2aa	<Dun-
.	.	.	.	4dd	-qu'il	.	.
=30	=30	=30	=30	=30	=30	=30	=30
2r	.	4A	-te,	2.cc	cor	4aa]	.
.	.	4A	<il	.	.	4aa	-qu'il
4r	.	2c	cor	.	.	2.gg	cor,
4C	il	.	.	8b	mi	.	.
.	.	.	.	8a	ren-	.	.
2G	cor,	4d	mi	2b	-de-	.	.
.	.	4d	ren-	.	.	4gg	il
2D	il	2f	-de-	2a	-te,	4ff	cor
.	.	.	.	.	.	8ee	mi
.	.	.	.	.	.	8dd	ren-
=31	=31	=31	=31	=31	=31	=31	=31
4A	cor	1.e	-te,>	4r	.	1ee	-de-
8G	mi	.	.	8e	mi	.	.
8F	ren-	.	.	8f	ren-	.	.
2E	-de-	.	.	2g#X	-de-	.	.
2A	-te,	.	.	2a	-te,	2ee	-te,>
4r	.	4r	.	4r	.	4r	.
[4A	Che,	[4e	Che,	[4a	Che,	[4cc#X	Che,
=32	=32	=32	=32	=32	=32	=32	=32
4A]	.	4e]	.	4a]	.	4cc#]	.
4d	per-	4f	per-	4a	per	4dd	per
4c	-ch'in	4g	-ch'in	4cc	ch'in	4ee	ch'in
2G	me	2g	me	2b	me	2dd	me
4A	re-	4e	re-	2a	re-	4ccnXi	re-
2E	-spi-	2e	-spi-	.	.	2b	-spi-
.	.	.	.	4g#X	-spi-	.	.
=33	=33	=33	=33	=33	=33	=33	=33
2A	-ri,	2e	-ri,	2a	-ri,	2cc#X	-ri,
2r	.	4r	.	4r	.	4r	.
.	.	2e	<Che	2b	<Che,	2ee	<Che,
1r	.	.	.	.	.	.	.
.	.	4d	per-	4dd	per	4ff	per
.	.	4c	-ch'in	4ee	ch'in	4gg	ch'in
.	.	[4g	me	[4dd	me	[4gg	me
=34	=34	=34	=34	=34	=34	=34	=34
1r	.	4g]	.	4dd]	.	4gg]	.
.	.	4d	re-	4dd	re-	4ff	re-
.	.	2e	-spi-	2b	-spi-	2ee	-spi-
2A	Non	4e	-ri,>	4cc	-ri,>	1ee	-ri,>
.	.	4e	Non	4cc	Non	.	.
4A	fia	2e	fia	4cc	fia	.	.
4A	men	.	.	4cc	men	.	.
=35	=35	=35	=35	=35	=35	=35	=35
2G	vo-	4e	men	2b	vo-	0r	.
.	.	2d	vo-	.	.	.	.
4F	-str'in	.	.	4a	-str'in	.	.
2F	fat-	4c	-str'in	2a	fat-	.	.
.	.	2.c	fat-	.	.	.	.
4E	-ti i	.	.	4g	-ti i	.	.
4F	suoi	.	.	4a	suoi	.	.
4G	de-	4B	-ti i	4d	de-	.	.
=36	=36	=36	=36	=36	=36	=36	=36
4.A	-si-	4c	suoi	4f	-si-	2r	.
.	.	4c	de-	4e	-ri,	.	.
8G	.	.	.	.	.	.	.
8FL	.	4.c	-si-	4r	.	4r	.
8GJ	.	.	.	.	.	.	.
8AL	.	.	.	4cc	<Non	4ee	Non
8BJ	.	8d	.	.	.	.	.
2c	.	8eL	.	4cc	fia	4ee	fia
.	.	8dJ	.	.	.	.	.
.	.	8eL	.	4cc	men	4ee	men
.	.	8fJ	.	.	.	.	.
2G	-ri,	4g	.	2b	vo-	[2dd	vo-
.	.	4d	-ri,	.	.	.	.
=37	=37	=37	=37	=37	=37	=37	=37
0r	.	1r	.	4a	-str'in-	4dd]	.
.	.	.	.	2a	-fat-	4cc	-str'in
.	.	.	.	.	.	2.cc	fat-
.	.	.	.	4g	-ti i	.	.
.	.	1r	.	4a	suoi	.	.
.	.	.	.	4b	de-	2b	-ti i
.	.	.	.	[2cc	-si-	.	.
.	.	.	.	.	.	4a	suoi
=38	=38	=38	=38	=38	=38	=38	=38
1r	.	1r	.	4cc]	.	4g#X	de-
.	.	.	.	8bL	.	2a	-si-
.	.	.	.	8aJ	.	.	.
.	.	.	.	2b	.	.	.
.	.	.	.	.	.	4g#X	.
4r	.	2a	Non	2a	-ri,>	4a	-ri,
4d	Non	.	.	.	.	4ff	Non
4d	fia	2a	fia	2r	.	4ff	fia
4d	men	.	.	.	.	4ff	men
=39	=39	=39	=39	=39	=39	=39	=39
1c	vo-	4a	men	2r	.	1ee	vo-
.	.	2g	vo-	.	.	.	.
.	.	.	.	2g	Non	.	.
.	.	4c	-stro,	.	.	.	.
2G	-stro,	2d	<Non	4g	fia	1dd	-stro,
.	.	.	.	4g	men	.	.
2r	.	4d	fia	2f	vo-	.	.
.	.	4d	men	.	.	.	.
=40	=40	=40	=40	=40	=40	=40	=40
2r	.	2c	vo-	4e	-str'in	4r	.
.	.	.	.	2cc	fat-	4gg	<Non
2d	Non	2G	-stro,>	.	.	4gg	fia
.	.	.	.	4b	-ti i	4gg	men
4d	fia	2r	.	8aL	suoi	2ff	vo-
.	.	.	.	8gJ	.	.	.
4d	men	.	.	8aL	.	.	.
.	.	.	.	8bJ	.	.	.
2c	vo-	4r	.	4cc	.	2ee	-str'>in
.	.	4g	<Non	4c	de-	.	.
=41	=41	=41	=41	=41	=41	=41	=41
4B-X	-str'in	4g	fia	2d	-si-	8ddL	fat-
.	.	.	.	.	.	8ccJ	.
2B-i	fat-	4g	men	.	.	8ddL	.
.	.	.	.	.	.	8eeJ	.
.	.	2.f	vo-	2d	-ri,	8ffL	.
.	.	.	.	.	.	8eeJ	.
4B-i	-ti i	.	.	.	.	8ffL	.
.	.	.	.	.	.	8ggJ	.
2A	suoi	.	.	2r	.	4aa	.
.	.	4e	-str'>in	.	.	4ee	-ti i
2G	de-	4e	fat-	4r	.	4gg	suoi
.	.	4d	-ti i	4dd	Non	4g	de-
=42	=42	=42	=42	=42	=42	=42	=42
2D	-si-	4f	suoi	4dd	fia	2a	-si-
.	.	4f	de-	4dd	men	.	.
2E	-ri,	2e	-si-	4cc	vos-	2ee	-ri,
.	.	.	.	4b	-tr'in	.	.
4r	.	4A	-ri,	2a	fat-	2cc	Non
4A	<Non	2e	Non	.	.	.	.
4A	fia	.	.	2a	-ti	4cc	fia
4A	men	4e	fia	.	.	4cc	men
=43	=43	=43	=43	=43	=43	=43	=43
2G	vo-	4e	men	2r	.	2b	vo-
.	.	2d	vo-	.	.	.	.
4F	-str'in	.	.	4r	.	4a	-str'in-
2F	fat-	4c	-str'in	4f	i	2a	-fat-
.	.	2.c	fat-	4f	suoi	.	.
4E	-ti i	.	.	4g	de-	4g	-ti i
4F	suoi	.	.	4f	-si-	4a	suoi
4G	de-	4B	-ti i	4d	-ri,	4g	de-
=44	=44	=44	=44	=44	=44	=44	=44
4.A	-si-	2.c	suoi	1r	.	4e	-si-
.	.	.	.	.	.	4e	-ri,
8G	.	.	.	.	.	.	.
2F	.	.	.	.	.	2r	.
.	.	4d	de-	.	.	.	.
1E	-ri,>	4.e	-si-	4r	.	4r	.
.	.	.	.	4g	Non	4ee	Non
.	.	16dL	.	.	.	.	.
.	.	16cJ	.	.	.	.	.
.	.	8BL	.	4g	fia	4ee	fia
.	.	8AJ	.	.	.	.	.
.	.	8BL	.	4g	men	4ee	men
.	.	8cJ	.	.	.	.	.
=45	=45	=45	=45	=45	=45	=45	=45
4r	.	4d	.	4f	vo-	4dd	vo-
4A	Non	4e	-ri,	4e	-stro,	4cc	-str'in
4A	fia	2r	.	4e	<Non	8eeL	fat-
.	.	.	.	.	.	8ddJ	.
4A	men	.	.	4e	fia	8eeL	.
.	.	.	.	.	.	8ffJ	.
2G	vo-	2r	.	4e	men	4gg	.
.	.	.	.	2d	vo-	4dd	-ti,
4F	-str'in	4r	.	.	.	2ff	Non
[4F	fat-	4c	in	4c	-stro,>	.	.
=46	=46	=46	=46	=46	=46	=46	=46
8F]L	.	1c	fat-	2cc	<Non	4ff	fia
8GJ	.	.	.	.	.	.	.
8AL	.	.	.	.	.	4ff	men
8BJ	.	.	.	.	.	.	.
4c	.	.	.	4cc	fia	2ee	vo-
4C	.	.	.	4cc	men	.	.
2G	-suoi	2d	-ti i	2b	vo-	4dd	-str'in
.	.	.	.	.	.	2dd	fat-
2D	de-	[2d	suoi	2a	-str'>in	.	.
.	.	.	.	.	.	4dd	-ti i
=47	=47	=47	=47	=47	=47	=47	=47
0E	-si-	2d]	.	4g#X	fat-	2b	suoi
.	.	.	.	4g#i	-ti i	.	.
.	.	2c	de-	2.a	suoi	2ee	de-
.	.	1B	-si-	.	.	1ee	-si-
.	.	.	.	4a	de-	.	.
.	.	.	.	2g#X	-si-	.	.
=48	=48	=48	=48	=48	=48	=48	=48
0Al	-ri.	0Al	-ri.	0al	-ri.	0cc#Xl	-ri.
==	==	==	==	==	==	==	==
*-	*-	*-	*-	*-	*-	*-	*-
!!!system-decoration: [*]
!!!RDF**kern: i = editorial accidental
!!!RDF**kern: l = terminal long
!!!ENC: Emiliano Ricciardi
!!!END: 2018
!!!EED: Ricciardi, Emiliano
!!!EEV: 2018/10/28
!!!YEC: Copyright 2018 Emiliano Ricciardi, All Rights Reserved
!!!ONB: Translated from MusicXML on 2018/10/28 and edited by Craig Stuart Sapp
!!@@BEGIN:	VERSEDATA
!!@SOLERTI:	154
!!@CATALOGNUM:	Trm0154
!!@LAST_MODIFIED: 2020/07/12
!!@TITLE:		S'a sdegno voi prendete
!!@GENRE:		madrigale
!!@MANUSRC:	C, Ts<sub>2</sub>, V<sub>8</sub>, V<sub>13/TS2</sub>
!!@PRINTSRC:	22, 26, 31, 35, 69, 141, 166, 169
!!@@BEGIN:	VERSES
!!@ABOUTIT:	Prega la sua donna che, se non gli vuol dare il suo core, gli dia almeno la sua imagine, e poi conclude che gli debba donar l'una e render l'altro.
!!@ABOUTEN:	He begs his lady that, if she does not want to give her heart to him, she at least give him her image, and then concludes that she should give him one and give back the other.
!!@EDITOR:	Solerti, Angelo
!!@EDITION_TITLE: Le Rime di Torquato Tasso
!!@EDITION_LOC:	Bologna
!!@EDITION_PUB:	Romagnoli-Dall’Acqua
!!@EDITION_DATE:  1898-1902
!!@EDITION_VOL:	2
!!@EDITION_PAGE:  236
!!@TRANSLATOR:	Emiliano Ricciardi and Amyrose McCue Gill
!!@VERSE:
!!	S'a sdegno voi prendete
!!	Ch'il cor vostro vi chieda,
!!	L'imagin vostra almen mi si conceda.
!!	Ma chi fia che l'ammiri,
!!	L'ami e se 'n mostri vago
!!	Se non segue il mio cor la vostra imago?
!!	Dunque il cor mi rendete,
!!	Che, perché in me respiri,
!!	Non fia men vostro in tutti i suoi desiri.
!!@TVERSE:
!!	If you turn to disdain
!!	Because I ask for your heart,
!!	May you at least concede me your image.
!!	But who would admire it,
!!	Love it, and prove himself fond of it
!!	If my heart does not follow your image?
!!	Therefore, give my heart back to me,
!!	So that, in order for it to breathe,
!!	It be no less yours in all its desires.
!!@@END:		VERSES
!!@OTHER_CRIT_ED:   Torquato Tasso, <i>Rime d’amore (secondo il codice
!!		Chigiano L VIII 302)</i>, eds. Franco Gavazzeni and
!!		Vercingetorige Martignone, vol. 4 of <i>Edizione
!!		Nazionale delle opere di Torquato Tasso</i>
!!		(Alessandria: Edizioni Dell’Orso, 2004), 122.
!!@ATTRIBUTION_ABOUT:	Secure
!!		<br>
!!		Among other authoritative sources (see Literary Sources), this poem appears in the autograph Chigiano
!!		L.VIII.302 (Biblioteca Vaticana, Rome), compiled
!!		around 1584&ndash;85.
!!@DATING:
!!@DEDICATEE:	Peperara, Laura ?
!!@COMMENTARY:
!!@@END:		VERSEDATA
!!@@BEGIN:	SETTING
!!@CATALOGNUM:	Trm0154a
!!@RIMETITLE:	S'a sdegno voi prendete
!!@SOLERTI:	154
!!@COMPOSER:	Dueto, Antonio
!!@PRINCEPSTITLE:	Il primo libro de madrigali a cinque voci
!!@PRINCEPSLOC:	Venetia
!!@NORMLOC:	Venice
!!@NORMPUB:	Angelo Gardano
!!@NORMPUBSHORT:	Gardano
!!@PRINCEPSPUB:	Gardano
!!@PRINCEPSYEAR:	1584
!!@PRINCEPSRISM:	D 3653
!!@REPRINTS:	
!!@OVOICES:	5
!!@EXTANTVOICES:	4
!!@PARTBOOKS:	
!!@EXTPARTBOOKS:	
!!@OCLEFS:	G2,C1,C3,C4
!!@OMENSURATION:	C
!!@OKEYSIG:	-
!!@FINAL:	A
!!@TIMPEDITOR:	Ricciardi, Emiliano
!!@NOTE:		
!!@@END:		SETTING
